X: 29
T: No_130_Song_of_Cīmau'ganīc.krn
N: Derived from No_130_Song_of_Cīmau'ganīc.krn
%%abc-version 2.0
%%abcx-abcm2ps-target-version 5.9.1 (29 Sep 2008)
%%abc-creator hum2abc beta
%%abcx-conversion-date 2019/03/15 08:29:13
%%humdrum-veritas 3637320302
%%humdrum-veritas-data 906789473
%%linebreak <none>
%%barnumbers 0
L: 1/8
M: 5/8
K: E clef=bass
[K:clef=bass][M:5/8]G3FE | 
F3EC | 
E3CB, | 
C3B,G, | 
B,3CB, ||  
[M:4/8]G,/G,/-G,2G,3//G,// | 
G,3z/ G/ ||  
[M:5/8]GEC2E ||  
[M:4/8]C B,G,2 ||  
[M:5/8]C3B,G, | 
B,3C/B,3/ ||  
[M:7/8]G,/G,/-G,3/G,/G,2G,2 ||  
[M:5/8]G3GE | 
F3EC ||  
[M:3/4]E2[K:clef=treble]c2B2 ||  
[M:5/8]c3BG ||  
[M:4/8]B2G2 | 
G2G,2[K:clef=bass] | 
z3G ||  
[M:5/8]GEC2E ||  
[M:4/8]C B,G,2 ||  
[M:5/8]C3B,G, | 
B,3C/B,3/ ||  
[M:6/8]G,/G,/G,3/G,/G,3 ||  
[M:5/8]G3FE ||  
[M:3/8]F3[K:clef=treble] | 
c2d ||  
[M:4/8]e2c B[K:clef=bass] ||  
[K:clef=bass][M:5/8]E,3D,B,, | 
D,3E,/B,,/-B,, ||  
[M:3/8]B,,3- ||  
[M:5/8]B,,3B,,,3/B,,/ | 
B,,G,,E,,2G,, ||  
[M:4/8]C B,G,2 ||  
[M:5/8]C3B,G, | 
B,3{/C} B,/G,/G, ||  
[M:6/8]G,/G,/G,3/G,/G,3 ]|:  
[M:5/8]G3GE | 
F3EC | 
E3CB, | 
C3B,G, | 
B,3(B,G,) | 
G,G,3/G,/G,3/G/ | 
GEC2E ||  
[M:4/8]C B,G,2 ||  
[M:5/8]C3B,G, | 
B,3(C/B,3/) | 
G,G,3/G,/G,2 :|]  
[M:6/8]G3GE[K:clef=treble]c ||  
[M:4/8]c2B G | 
B2c/G/ G ||  
[M:3/8]G2-G3//G// | 
G2G, |]  



